!! 00000] TT[WS
!!!OTL: Shui buxing
!!!ARE: Asia, China, Shanxi Wutai
!! Ethnic Group: Han
!! WII, 111 (1)
!!!SCT: J0566
!!!YEM: Copyright 1995, estate of Helmut Schaffrath.
**kern
*ICvox
*Ivox
*M2/4
*k[f#c#g#]
*A:
{8a
8a
8a
8f#
=1
2ee
=2
4.ee
8ff#
=3
8ee
16ee
16ee
8ee
8a
=4
4b
4r}
=5
{8ee
8ee
8ee
8a
=6
4b
4r
=7
8ee
8ee
8ee
8a
=8
4b
4r}
=9
{8ee
8cc#
8ee
16cc#
16f#
=10
8e
16e
16f#
4e
=11
8ee
8ee
8ee
16cc#
16f#
=12
8e
16e
16f#
4e}
=13
{8b
8cc#
4b
=14
8b
8ee
8cc#
8ee
=15
8.b
16cc#
8e
16e
16f#
=16
8e
16e
16f#
8e
16e
16f#
=17
8e
16e
16f#
8a
8f#
=18
2e}
==
!!!AGN: Xiaodiao. Qingge, Sichun
!!!ONB: ESAC (Essen Associative Code) Database: CHINA
!!!AMT: simple duple
!!!AIN: vox
!!!EED: Helmut Schaffrath
!!!EEV: 1.0
*-
